X: 4
M: 2/4
L: 1/16
K: D
V: 1
defg |\
a2a2 defd | A4 Adcd | Adcd Agfa | e4 defg |\
a2a2 defd | A4 dcBA | Bcdg fdec | d4 :|
|: ABcd |\
ecBA g2g2 | g2f2 gbeg | fadf eged | c2A2 Adce |\
dfeg Adce | dfeg Adce | dfeg fdec | d4 :|[K:Dm]
"Mineur"\
fgef |\
dfeg fagb | a2d2 gafg | efde ^c2d2 | e2A2 fgef |\
dfeg fagb | a2d2 gafg | efde A2^c2 | d4 :|
|: a2d2 |\
d_edc d_edc | B2G2 g2c2 | cdcB cdcB | A2F2 Ac=Bc |\
V: 2 clef=bass middle=d
d2d'2 | c'2a2f2d2 | c2A2 f2e2 | f2d2c2d2 | agfe d2d'2 |
c'2a2f2d2 | c2A2 f2d2 | g2fg a2A2 | d4 :||: a4 | A2B2c2A2 | d2D2 B2c2 |
d2f2g2^g2 | a2=g2f2a2 | d2g2f2a2 | d2g2f2a2 | d2g2a2A2 | d4 :|[K:Dm]
"Mineur"\
d2^c2 | d2A2 d2e2 | f4e2d2 | g2b2a2d2 | A4 d2^c2 | d2A2d2e2 |
f4e2d2 | g2b2a2A2 | d4 :||: ^f4 | "^(#)"f4 f4 | g4 e4 | e4 e4 |
f4 ^f4 | g4 ^g4 | a4 d'2^c'2 | d'2d2 a2A2 | d4 :|


